gtk-icons/Papirus-GTK/16x16/mimetypes/rpm.svg

<?xml version="1.0" encoding="UTF-8" standalone="no"?>
<svg
   xmlns:dc="http://purl.org/dc/elements/1.1/"
   xmlns:cc="http://creativecommons.org/ns#"
   xmlns:rdf="http://www.w3.org/1999/02/22-rdf-syntax-ns#"
   xmlns:svg="http://www.w3.org/2000/svg"
   xmlns="http://www.w3.org/2000/svg"
   xmlns:sodipodi="http://sodipodi.sourceforge.net/DTD/sodipodi-0.dtd"
   xmlns:inkscape="http://www.inkscape.org/namespaces/inkscape"
   width="16px"
   height="16px"
   viewBox="0 0 16 16"
   version="1.1"
   id="svg2"
   inkscape:version="0.91 r"
   sodipodi:docname="rpm.svg">
  <metadata
     id="metadata21">
    <rdf:RDF>
      <cc:Work
         rdf:about="">
        <dc:format>image/svg+xml</dc:format>
        <dc:type
           rdf:resource="http://purl.org/dc/dcmitype/StillImage" />
      </cc:Work>
    </rdf:RDF>
  </metadata>
  <defs
     id="defs19" />
  <sodipodi:namedview
     pagecolor="#ffffff"
     bordercolor="#666666"
     borderopacity="1"
     objecttolerance="10"
     gridtolerance="10"
     guidetolerance="10"
     inkscape:pageopacity="0"
     inkscape:pageshadow="2"
     inkscape:window-width="1535"
     inkscape:window-height="876"
     id="namedview17"
     showgrid="false"
     inkscape:zoom="14.75"
     inkscape:cx="-4.0338983"
     inkscape:cy="8"
     inkscape:window-x="65"
     inkscape:window-y="24"
     inkscape:window-maximized="1"
     inkscape:current-layer="svg2" />
  <g
     id="surface1"
     transform="translate(-0.5,0.5)">
    <path
       style="fill:#d1d1d1;fill-opacity:1;fill-rule:nonzero;stroke:none"
       d="m 14.5,13.851562 0,-11.703124 C 14.5,1.789062 14.210938,1.5 13.851562,1.5 L 2.148438,1.5 C 1.789062,1.5 1.5,1.789062 1.5,2.148438 l 0,11.703124 C 1.5,14.210938 1.789062,14.5 2.148438,14.5 l 11.703124,0 C 14.210938,14.5 14.5,14.210938 14.5,13.851562 Z m 0,0"
       id="path5"
       inkscape:connector-curvature="0" />
    <path
       style="fill:#b09961;fill-opacity:1;fill-rule:nonzero;stroke:none"
       d="m 6,5.5 0,5.25 1.25,0 0,-2 2,0 0,-3.25 z M 7.351562,6.851562 8,6.851562 8,7.5 7.351562,7.5 Z m 0,0"
       id="path7"
       inkscape:connector-curvature="0" />
    <path
       style="fill:#b09961;fill-opacity:1;fill-rule:nonzero;stroke:none"
       d="m 2.5,5.5 0,5.25 1.25,0 0,-1.25 0.75,1.25 1.25,0 -0.625,-2 0.625,0 0,-3.25 z m 1.300781,1.351562 0.648438,0 0,0.648438 -0.648438,0 z m 0,0"
       id="path9"
       inkscape:connector-curvature="0" />
    <path
       style="fill:#b09961;fill-opacity:1;fill-rule:nonzero;stroke:none"
       d="m 9.5,5.5 0,5.25 1.25,0 0,-2.25 0.875,1 0.875,-1 0,2.25 1.25,0 0,-5.25 -1.25,0 -0.875,2 -0.875,-2 z m 0,0"
       id="path11"
       inkscape:connector-curvature="0" />
    <path
       style="fill:#ffffff;fill-opacity:0.2;fill-rule:nonzero;stroke:none"
       d="M 2.148438,1.5 C 1.789062,1.5 1.5,1.789062 1.5,2.148438 l 0,0.5 C 1.5,2.289062 1.789062,2 2.148438,2 L 13.851562,2 C 14.210938,2 14.5,2.289062 14.5,2.648438 l 0,-0.5 C 14.5,1.789062 14.210938,1.5 13.851562,1.5 Z m 0,0"
       id="path13"
       inkscape:connector-curvature="0" />
    <path
       style="fill:#000000;fill-opacity:0.30196102;fill-rule:nonzero;stroke:none"
       d="m 1.5,13.351562 0,0.5 C 1.5,14.210938 1.789062,14.5 2.148438,14.5 l 11.703124,0 C 14.210938,14.5 14.5,14.210938 14.5,13.851562 l 0,-0.5 C 14.5,13.710938 14.210938,14 13.851562,14 L 2.148438,14 C 1.789062,14 1.5,13.710938 1.5,13.351562 Z m 0,0"
       id="path15"
       inkscape:connector-curvature="0" />
  </g>
</svg>

<?xml version="1.0" encoding="UTF-8" standalone="no"?>
<svg id="svg2" xmlns:rdf="http://www.w3.org/1999/02/22-rdf-syntax-ns#" xmlns="http://www.w3.org/2000/svg" height="16px" width="16px" version="1.1" xmlns:cc="http://creativecommons.org/ns#" xmlns:dc="http://purl.org/dc/elements/1.1/" viewBox="0 0 16 16">
 <metadata id="metadata21">
  <rdf:RDF>
   <cc:Work rdf:about="">
    <dc:format>image/svg+xml</dc:format>
    <dc:type rdf:resource="http://purl.org/dc/dcmitype/StillImage"/>
   </cc:Work>
  </rdf:RDF>
 </metadata>
 <g id="surface1" transform="translate(-.5 .5)">
  <path id="path5" d="m14.5 13.852v-11.703c0-0.3599-0.289-0.649-0.648-0.649h-11.704c-0.3589 0-0.648 0.2891-0.648 0.6484v11.703c0 0.36 0.2891 0.649 0.6484 0.649h11.703c0.36 0 0.649-0.289 0.649-0.648z" fill="#d1d1d1"/>
  <path id="path7" d="m6 5.5v5.25h1.25v-2h2v-3.25zm1.3516 1.3516h0.6484v0.6484h-0.6484z" fill="#b09961"/>
  <path id="path9" d="m2.5 5.5v5.25h1.25v-1.25l0.75 1.25h1.25l-0.625-2h0.625v-3.25zm1.3008 1.3516h0.64844v0.64844h-0.64844z" fill="#b09961"/>
  <path id="path11" d="m9.5 5.5v5.25h1.25v-2.25l0.875 1 0.875-1v2.25h1.25v-5.25h-1.25l-0.875 2-0.875-2z" fill="#b09961"/>
  <path id="path13" d="m2.1484 1.5c-0.3593 0-0.6484 0.2891-0.6484 0.6484v0.5c0-0.3593 0.2891-0.6484 0.6484-0.6484h11.704c0.359 0 0.648 0.2891 0.648 0.6484v-0.5c0-0.3593-0.289-0.6484-0.648-0.6484z" fill-opacity=".2" fill="#fff"/>
  <path id="path15" d="m1.5 13.352v0.5c0 0.359 0.2891 0.648 0.6484 0.648h11.703c0.36 0 0.649-0.289 0.649-0.648v-0.5c0 0.359-0.289 0.648-0.648 0.648h-11.704c-0.3589 0-0.648-0.289-0.648-0.648z" fill-opacity=".30196"/>
 </g>
</svg>
